Newaita-dark/mimetypes/16/text-x-vala.svg

<svg height="16pt" viewBox="0 0 16 16" width="16pt" xmlns="http://www.w3.org/2000/svg" xmlns:xlink="http://www.w3.org/1999/xlink"><linearGradient id="a"><stop offset="0" stop-opacity=".27451"/><stop offset="1" stop-opacity="0"/></linearGradient><linearGradient id="b" gradientUnits="userSpaceOnUse" x1="8.269023" x2="8.269023" xlink:href="#a" y1="14.0169675" y2="14.67848943751"/><linearGradient id="c"><stop offset="0" stop-opacity=".313725"/><stop offset=".222222" stop-opacity=".27451"/><stop offset="1" stop-opacity="0"/></linearGradient><radialGradient id="d" cx="450.90894" cy="189.57936" gradientTransform="matrix(.00000009 -.0390662 -.0703192 -.00000005 24.742285 31.797667)" gradientUnits="userSpaceOnUse" r="21.166656" xlink:href="#c"/><radialGradient id="e" cx="450.90894" cy="189.57936" gradientTransform="matrix(-.00000009 .0390662 .0703192 .00000005 -9.196525 -3.763739)" gradientUnits="userSpaceOnUse" r="21.166656" xlink:href="#c"/><radialGradient id="f" cx="450.90894" cy="189.57936" gradientTransform="matrix(-.00000009 -.0390662 .0703192 -.00000005 -9.196525 31.797667)" gradientUnits="userSpaceOnUse" r="21.166656" xlink:href="#c"/><radialGradient id="g" cx="450.90894" cy="189.57936" gradientTransform="matrix(.00000009 .0390662 -.0703192 .00000005 24.742284 -3.76374)" gradientUnits="userSpaceOnUse" r="21.166656" xlink:href="#c"/><linearGradient id="h" gradientUnits="userSpaceOnUse" x1="7.7728788" x2="7.7728788" y1="14.01696629816" y2="1.44805523664"><stop offset="0" stop-color="#f48fb1"/><stop offset="1" stop-color="#f8bbd0"/></linearGradient><linearGradient id="i" gradientTransform="matrix(.0149471 0 0 .0546927 7.521211 -8.263145)" gradientUnits="userSpaceOnUse" x1="249.18941" x2="249.18942" xlink:href="#a" y1="236.52379" y2="254.66669"/><linearGradient id="j"><stop offset="0" stop-color="#ec407a"/><stop offset="1" stop-color="#f06292"/></linearGradient><linearGradient id="k" gradientUnits="userSpaceOnUse" x1="10.58434912498" x2="10.58434912498" xlink:href="#j" y1="14.0169675" y2="1.44805256249"/><linearGradient id="l" gradientUnits="userSpaceOnUse" x1="248.70833" x2="248.70834" xlink:href="#j" y1="233.5" y2="-168.66667"/><path d="m3.96875 14.015625h7.609375v.664063h-7.609375zm0 0" fill="url(#b)"/><path d="m11.578125 14.015625h1.320313v-.660156h-1.320313zm0 0" fill="url(#d)"/><path d="m3.96875 14.015625h-1.324219v.664063h1.324219zm0 0" fill="url(#e)"/><path d="m3.96875 14.015625h-1.324219v-.660156h1.324219zm0 0" fill="url(#f)"/><path d="m11.578125 14.015625h1.320313v.664063h-1.320313zm0 0" fill="url(#g)"/><path d="m9.269531 1.449219h-5.960937c-.367188 0-.664063.292969-.664063.660156v11.246094c0 .367187.296875.660156.664063.660156h8.929687c.367188 0 .660157-.292969.660157-.660156v-8.277344zm0 0" fill="url(#h)"/><path d="m9.261719 4.507812h3.140625l.496094.496094v.660156h-3.636719zm0 0" fill="url(#i)"/><path d="m2.644531 13.097656v.257813c0 .367187.296875.660156.664063.660156h8.929687c.367188 0 .660157-.292969.660157-.660156v-.257813c0 .367188-.292969.664063-.660157.664063h-8.929687c-.367188 0-.664063-.296875-.664063-.664063zm0 0" fill-opacity=".235294"/><path d="m3.308594 1.449219c-.367188 0-.664063.292969-.664063.660156v.25c0-.367187.296875-.664063.664063-.664063h5.960937l3.628907 3.628907v-.246094l-3.628907-3.628906zm0 0" fill="#fff" fill-opacity=".392157"/><path d="m12.898438 5.078125-3.628907-3.628906v2.964843c0 .367188.296875.664063.664063.664063zm0 0" fill="url(#k)"/><path d="m9.269531 4.257812v.15625c0 .367188.296875.664063.664063.664063h2.964844l-.15625-.15625h-2.808594c-.367188 0-.664063-.296875-.664063-.664063zm0 0" fill-opacity=".235294"/><path d="m9.269531 1.449219v.246093l3.382813 3.382813h.246094zm0 0" fill="#fff" fill-opacity=".392157"/><path d="m9.269531 1.402344c-.023437 0-.046875.019531-.046875.046875v2.964843c0 .394532.316406.710938.710938.710938h2.964844c.019531 0 .039062-.011719.042968-.03125.007813-.015625.003906-.035156-.007812-.050781l-3.628906-3.628907c-.007813-.007812-.023438-.011718-.035157-.011718zm.046875.160156 3.46875 3.46875h-2.851562c-.34375 0-.617188-.273438-.617188-.617188zm0 0" fill="#212121"/><path d="m3.308594 1.402344c-.394532 0-.710938.316406-.710938.707031v11.246094c0 .390625.316406.707031.710938.707031h8.929687c.390625 0 .707031-.316406.707031-.707031v-8.277344c0-.015625-.003906-.027344-.011718-.035156l-3.628906-3.628907c-.007813-.007812-.019532-.011718-.035157-.011718zm0 .09375h5.941406l3.601562 3.601562v8.257813c0 .339843-.273437.613281-.613281.613281h-8.929687c-.34375 0-.617188-.273438-.617188-.613281v-11.246094c0-.339844.273438-.613281.617188-.613281zm0 0" fill="#212121"/><path d="m291.22219-33.642319c-5.749451-.124988-10.748974 3.624654-12.498807 8.999141l-29.997135 89.991406-29.997136-89.991406c-1.374868-4.49957-5.12451-7.874248-9.749069-8.749165-4.624558-.999904-9.374104.624941-12.498806 4.124606-2.999714 3.499666-3.999618 8.499189-2.499761 12.873771l42.370953 126.987873c1.749833 5.374487 6.749356 8.874153 12.373819 8.874153s10.498997-3.499666 12.373818-8.874153l42.245966-126.987873c1.374869-3.999618.749928-8.3742-1.624845-11.748878-2.374773-3.499666-6.374391-5.499475-10.498997-5.499475zm0 0" fill="url(#l)" stroke="#212121" stroke-linecap="round" stroke-linejoin="round" stroke-width="3" transform="matrix(.031253 0 0 .031253 0 6.719392)"/></svg>

<?xml version="1.0" encoding="UTF-8"?>
<svg xmlns="http://www.w3.org/2000/svg" xmlns:xlink="http://www.w3.org/1999/xlink" width="16pt" height="16pt" viewBox="0 0 16 16" version="1.1">
<defs>
<linearGradient id="linear0" gradientUnits="userSpaceOnUse" x1="254" y1="233.5" x2="254" y2="254.66667" gradientTransform="matrix(0.031253,0,0,0.031253,0.330761,6.719392)">
<stop offset="0" style="stop-color:rgb(0%,0%,0%);stop-opacity:0.27451;"/>
<stop offset="1" style="stop-color:rgb(0%,0%,0%);stop-opacity:0;"/>
</linearGradient>
<radialGradient id="radial0" gradientUnits="userSpaceOnUse" cx="450.90894" cy="189.57936" fx="450.90894" fy="189.57936" r="21.166656" gradientTransform="matrix(0.0000000870852,-0.0390662,-0.0703192,-0.0000000507693,24.742285,31.797667)">
<stop offset="0" style="stop-color:rgb(0%,0%,0%);stop-opacity:0.313725;"/>
<stop offset="0.222222" style="stop-color:rgb(0%,0%,0%);stop-opacity:0.27451;"/>
<stop offset="1" style="stop-color:rgb(0%,0%,0%);stop-opacity:0;"/>
</radialGradient>
<radialGradient id="radial1" gradientUnits="userSpaceOnUse" cx="450.90894" cy="189.57936" fx="450.90894" fy="189.57936" r="21.166656" gradientTransform="matrix(-0.0000000870852,0.0390662,0.0703192,0.0000000507693,-9.196525,-3.763739)">
<stop offset="0" style="stop-color:rgb(0%,0%,0%);stop-opacity:0.313725;"/>
<stop offset="0.222222" style="stop-color:rgb(0%,0%,0%);stop-opacity:0.27451;"/>
<stop offset="1" style="stop-color:rgb(0%,0%,0%);stop-opacity:0;"/>
</radialGradient>
<radialGradient id="radial2" gradientUnits="userSpaceOnUse" cx="450.90894" cy="189.57936" fx="450.90894" fy="189.57936" r="21.166656" gradientTransform="matrix(-0.0000000870852,-0.0390662,0.0703192,-0.0000000507693,-9.196525,31.797667)">
<stop offset="0" style="stop-color:rgb(0%,0%,0%);stop-opacity:0.313725;"/>
<stop offset="0.222222" style="stop-color:rgb(0%,0%,0%);stop-opacity:0.27451;"/>
<stop offset="1" style="stop-color:rgb(0%,0%,0%);stop-opacity:0;"/>
</radialGradient>
<radialGradient id="radial3" gradientUnits="userSpaceOnUse" cx="450.90894" cy="189.57936" fx="450.90894" fy="189.57936" r="21.166656" gradientTransform="matrix(0.0000000870852,0.0390662,-0.0703192,0.0000000507693,24.742284,-3.76374)">
<stop offset="0" style="stop-color:rgb(0%,0%,0%);stop-opacity:0.313725;"/>
<stop offset="0.222222" style="stop-color:rgb(0%,0%,0%);stop-opacity:0.27451;"/>
<stop offset="1" style="stop-color:rgb(0%,0%,0%);stop-opacity:0;"/>
</radialGradient>
<linearGradient id="linear1" gradientUnits="userSpaceOnUse" x1="940" y1="1695.1182" x2="940" y2="175.11812" gradientTransform="matrix(0.00826902,0,0,0.00826902,0,0)">
<stop offset="0" style="stop-color:rgb(95.686275%,56.078431%,69.411765%);stop-opacity:1;"/>
<stop offset="1" style="stop-color:rgb(97.254902%,73.333333%,81.568627%);stop-opacity:1;"/>
</linearGradient>
<linearGradient id="linear2" gradientUnits="userSpaceOnUse" x1="249.18941" y1="236.52379" x2="249.18942" y2="254.66669" gradientTransform="matrix(0.0149471,0,0,0.0546927,7.521211,-8.263145)">
<stop offset="0" style="stop-color:rgb(0%,0%,0%);stop-opacity:0.27451;"/>
<stop offset="1" style="stop-color:rgb(0%,0%,0%);stop-opacity:0;"/>
</linearGradient>
<linearGradient id="linear3" gradientUnits="userSpaceOnUse" x1="338.66666" y1="233.5" x2="338.66666" y2="-168.66667" gradientTransform="matrix(0.031253,0,0,0.031253,0,6.719392)">
<stop offset="0" style="stop-color:rgb(92.54902%,25.098039%,47.843137%);stop-opacity:1;"/>
<stop offset="1" style="stop-color:rgb(94.117647%,38.431373%,57.254902%);stop-opacity:1;"/>
</linearGradient>
<linearGradient id="linear4" gradientUnits="userSpaceOnUse" x1="248.70833" y1="233.5" x2="248.70834" y2="-168.66667" >
<stop offset="0" style="stop-color:rgb(92.54902%,25.098039%,47.843137%);stop-opacity:1;"/>
<stop offset="1" style="stop-color:rgb(94.117647%,38.431373%,57.254902%);stop-opacity:1;"/>
</linearGradient>
</defs>
<g id="surface1">
<path style=" stroke:none;fill-rule:nonzero;fill:url(#linear0);" d="M 3.96875 14.015625 L 11.578125 14.015625 L 11.578125 14.679688 L 3.96875 14.679688 Z M 3.96875 14.015625 "/>
<path style=" stroke:none;fill-rule:nonzero;fill:url(#radial0);" d="M 11.578125 14.015625 L 12.898438 14.015625 L 12.898438 13.355469 L 11.578125 13.355469 Z M 11.578125 14.015625 "/>
<path style=" stroke:none;fill-rule:nonzero;fill:url(#radial1);" d="M 3.96875 14.015625 L 2.644531 14.015625 L 2.644531 14.679688 L 3.96875 14.679688 Z M 3.96875 14.015625 "/>
<path style=" stroke:none;fill-rule:nonzero;fill:url(#radial2);" d="M 3.96875 14.015625 L 2.644531 14.015625 L 2.644531 13.355469 L 3.96875 13.355469 Z M 3.96875 14.015625 "/>
<path style=" stroke:none;fill-rule:nonzero;fill:url(#radial3);" d="M 11.578125 14.015625 L 12.898438 14.015625 L 12.898438 14.679688 L 11.578125 14.679688 Z M 11.578125 14.015625 "/>
<path style=" stroke:none;fill-rule:nonzero;fill:url(#linear1);" d="M 9.269531 1.449219 L 3.308594 1.449219 C 2.941406 1.449219 2.644531 1.742188 2.644531 2.109375 L 2.644531 13.355469 C 2.644531 13.722656 2.941406 14.015625 3.308594 14.015625 L 12.238281 14.015625 C 12.605469 14.015625 12.898438 13.722656 12.898438 13.355469 L 12.898438 5.078125 Z M 9.269531 1.449219 "/>
<path style=" stroke:none;fill-rule:nonzero;fill:url(#linear2);" d="M 9.261719 4.507812 L 12.402344 4.507812 L 12.898438 5.003906 L 12.898438 5.664062 L 9.261719 5.664062 Z M 9.261719 4.507812 "/>
<path style=" stroke:none;fill-rule:nonzero;fill:rgb(0%,0%,0%);fill-opacity:0.235294;" d="M 2.644531 13.097656 L 2.644531 13.355469 C 2.644531 13.722656 2.941406 14.015625 3.308594 14.015625 L 12.238281 14.015625 C 12.605469 14.015625 12.898438 13.722656 12.898438 13.355469 L 12.898438 13.097656 C 12.898438 13.464844 12.605469 13.761719 12.238281 13.761719 L 3.308594 13.761719 C 2.941406 13.761719 2.644531 13.464844 2.644531 13.097656 Z M 2.644531 13.097656 "/>
<path style=" stroke:none;fill-rule:nonzero;fill:rgb(100%,100%,100%);fill-opacity:0.392157;" d="M 3.308594 1.449219 C 2.941406 1.449219 2.644531 1.742188 2.644531 2.109375 L 2.644531 2.359375 C 2.644531 1.992188 2.941406 1.695312 3.308594 1.695312 L 9.269531 1.695312 L 12.898438 5.324219 L 12.898438 5.078125 L 9.269531 1.449219 Z M 3.308594 1.449219 "/>
<path style=" stroke:none;fill-rule:nonzero;fill:url(#linear3);" d="M 12.898438 5.078125 L 9.269531 1.449219 L 9.269531 4.414062 C 9.269531 4.78125 9.566406 5.078125 9.933594 5.078125 Z M 12.898438 5.078125 "/>
<path style=" stroke:none;fill-rule:nonzero;fill:rgb(0%,0%,0%);fill-opacity:0.235294;" d="M 9.269531 4.257812 L 9.269531 4.414062 C 9.269531 4.78125 9.566406 5.078125 9.933594 5.078125 L 12.898438 5.078125 L 12.742188 4.921875 L 9.933594 4.921875 C 9.566406 4.921875 9.269531 4.625 9.269531 4.257812 Z M 9.269531 4.257812 "/>
<path style=" stroke:none;fill-rule:nonzero;fill:rgb(100%,100%,100%);fill-opacity:0.392157;" d="M 9.269531 1.449219 L 9.269531 1.695312 L 12.652344 5.078125 L 12.898438 5.078125 Z M 9.269531 1.449219 "/>
<path style=" stroke:none;fill-rule:nonzero;fill:rgb(12.941176%,12.941176%,12.941176%);fill-opacity:1;" d="M 9.269531 1.402344 C 9.246094 1.402344 9.222656 1.421875 9.222656 1.449219 L 9.222656 4.414062 C 9.222656 4.808594 9.539062 5.125 9.933594 5.125 L 12.898438 5.125 C 12.917969 5.125 12.9375 5.113281 12.941406 5.09375 C 12.949219 5.078125 12.945312 5.058594 12.933594 5.042969 L 9.304688 1.414062 C 9.296875 1.40625 9.28125 1.402344 9.269531 1.402344 Z M 9.316406 1.5625 L 12.785156 5.03125 L 9.933594 5.03125 C 9.589844 5.03125 9.316406 4.757812 9.316406 4.414062 Z M 9.316406 1.5625 "/>
<path style=" stroke:none;fill-rule:nonzero;fill:rgb(12.941176%,12.941176%,12.941176%);fill-opacity:1;" d="M 3.308594 1.402344 C 2.914062 1.402344 2.597656 1.71875 2.597656 2.109375 L 2.597656 13.355469 C 2.597656 13.746094 2.914062 14.0625 3.308594 14.0625 L 12.238281 14.0625 C 12.628906 14.0625 12.945312 13.746094 12.945312 13.355469 L 12.945312 5.078125 C 12.945312 5.0625 12.941406 5.050781 12.933594 5.042969 L 9.304688 1.414062 C 9.296875 1.40625 9.285156 1.402344 9.269531 1.402344 Z M 3.308594 1.496094 L 9.25 1.496094 L 12.851562 5.097656 L 12.851562 13.355469 C 12.851562 13.695312 12.578125 13.96875 12.238281 13.96875 L 3.308594 13.96875 C 2.964844 13.96875 2.691406 13.695312 2.691406 13.355469 L 2.691406 2.109375 C 2.691406 1.769531 2.964844 1.496094 3.308594 1.496094 Z M 3.308594 1.496094 "/>
<path style="fill-rule:nonzero;fill:url(#linear4);stroke-width:3;stroke-linecap:round;stroke-linejoin:round;stroke:rgb(12.941176%,12.941176%,12.941176%);stroke-opacity:1;stroke-miterlimit:4;" d="M 291.22219 -33.642319 C 285.472739 -33.767307 280.473216 -30.017665 278.723383 -24.643178 L 248.726248 65.348228 L 218.729112 -24.643178 C 217.354244 -29.142748 213.604602 -32.517426 208.980043 -33.392343 C 204.355485 -34.392247 199.605939 -32.767402 196.481237 -29.267737 C 193.481523 -25.768071 192.481619 -20.768548 193.981476 -16.393966 L 236.352429 110.593907 C 238.102262 115.968394 243.101785 119.46806 248.726248 119.46806 C 254.350711 119.46806 259.225245 115.968394 261.100066 110.593907 L 303.346032 -16.393966 C 304.720901 -20.393584 304.09596 -24.768166 301.721187 -28.142844 C 299.346414 -31.64251 295.346796 -33.642319 291.22219 -33.642319 Z M 291.22219 -33.642319 " transform="matrix(0.031253,0,0,0.031253,0,6.719392)"/>
</g>
</svg>
